svgs/duotone/person-sledding.svg

<svg xmlns="http://www.w3.org/2000/svg" viewBox="0 0 512 512"><!--! Font Awesome Pro 6.0.0-alpha3 by @fontawesome - https://fontawesome.com License - https://fontawesome.com/license (Commercial License) --><defs><style>.fa-secondary{opacity:.4}</style></defs><path class="fa-primary" d="M352.1 256h-50.86l46.12-46.12c8.957-8.979 14.01-21.13 14.03-33.81c.0449-26.51-21.41-48.03-47.92-48.08H160c-17.67 0-32 14.33-32 32s14.33 32 32 32h82.78L169.4 265.4C166.4 268.3 164.1 271.9 162.5 275.8C160.6 280.8 159.1 286.4 160.7 291.7L215.6 320l104.5 .0202l0 53.98l56.89 29.39c4.199-5.4 7.232-11.85 7.232-19.35l-.0004-96.02C384.1 270.3 369.8 256 352.1 256z"/><path class="fa-secondary" d="M505 420.1c-9.305-9.361-24.49-9.34-33.85-.0332c-12.1 12.1-30.55 15.43-45.16 8.725L34.98 226.7C23.19 220.6 8.772 225.2 2.696 236.1C-3.378 248.8 1.189 263.2 12.98 269.3l391.9 202.6C416.5 477.2 429.2 480 442 480c23.62 .0352 46.3-9.321 63.02-26C514.4 444.6 514.4 429.5 505 420.1zM400 32c-26.51 0-48.01 21.49-48.01 48s21.5 48 48.01 48s48.01-21.49 48.01-48S426.5 32 400 32z"/></svg>

<svg xmlns="http://www.w3.org/2000/svg" viewBox="0 0 512 512"><!-- Font Awesome Pro 6.0.0-alpha2 by @fontawesome - https://fontawesome.com License - https://fontawesome.com/license (Commercial License) --><defs><style>.fa-secondary{opacity:.4}</style></defs><path d="M505.023 420.1C495.719 410.738 480.586 410.693 471.224 420L471.125 420.1C459.023 432.199 440.625 435.5 426.023 428.799L35.023 226.6C23.232 220.525 8.748 225.158 2.672 236.949C-3.402 248.74 1.23 263.225 13.023 269.301L404.924 471.9C416.555 477.266 429.215 480.029 442.023 480C465.642 480.035 488.307 470.682 505.023 454C514.326 444.613 514.326 429.486 505.023 420.1ZM400.023 32C373.514 32 352.023 53.49 352.023 80S373.514 128 400.023 128S448.023 106.51 448.023 80S426.533 32 400.023 32Z" class="fa-secondary"/><path d="M352.1 256H301.301L347.4 209.9C356.357 200.922 361.396 188.764 361.418 176.082C361.463 149.572 340.01 128.045 313.5 128H160C142.326 128 128 142.326 128 160S142.326 192 160 192H242.801L169.4 265.4C166.408 268.354 164.059 271.895 162.5 275.801C160.561 280.861 159.941 286.332 160.699 291.699L215.471 320H320V374L376.9 403.4C381.1 398 384.1 391.5 384.1 384V288C384.1 270.326 369.773 256 352.1 256Z" class="fa-primary"/></svg>
